X: 9024
T: Da Boannie Polka
R: barndance
M: 4/4
K: Dmajor
|:FA/F/ GB/G/|Af f/e/f/d/|Be e/f/e/c/|Ad d>A:|
|:dB B/c/d/B/|AF F>A|GE E/F/G/E/|FD D2:|

